icons/blocked-24.svg

<svg width="24" height="24" viewBox="0 0 24 24" fill="none" xmlns="http://www.w3.org/2000/svg">
<path fill-rule="evenodd" clip-rule="evenodd" d="M7.63819 2.21967C7.77885 2.07902 7.96961 2 8.16852 2L15.8315 2C16.0304 2 16.2212 2.07902 16.3618 2.21967L21.7803 7.63819C21.921 7.77885 22 7.96961 22 8.16852V15.8315C22 16.0304 21.921 16.2212 21.7803 16.3618L16.3618 21.7803C16.2212 21.921 16.0304 22 15.8315 22H8.16852C7.96961 22 7.77885 21.921 7.63819 21.7803L2.21967 16.3618C2.07902 16.2212 2 16.0304 2 15.8315L2 8.16852C2 7.96961 2.07902 7.77885 2.21967 7.63819L7.63819 2.21967ZM8.47918 3.5L3.5 8.47919L3.5 15.5208L8.47919 20.5H15.5208L20.5 15.5208V8.47919L15.5208 3.5L8.47918 3.5ZM7 11.75C7 11.3358 7.33579 11 7.75 11H16.25C16.6642 11 17 11.3358 17 11.75C17 12.1642 16.6642 12.5 16.25 12.5H7.75C7.33579 12.5 7 12.1642 7 11.75Z" fill="black"/>
</svg>

<svg xmlns="http://www.w3.org/2000/svg" width="24" height="24" viewBox="0 0 24 24"><path fill-rule="evenodd" d="M7.638 2.22a.75.75 0 01.53-.22h7.664a.75.75 0 01.53.22l5.418 5.418c.141.14.22.332.22.53v7.664a.75.75 0 01-.22.53l-5.418 5.418a.75.75 0 01-.53.22H8.168a.75.75 0 01-.53-.22l-5.42-5.418a.75.75 0 01-.219-.53V8.168a.75.75 0 01.22-.53l5.418-5.42zM8.48 3.5L3.5 8.48v7.04l4.98 4.98h7.04l4.98-4.98V8.48L15.52 3.5H8.48zM7 11.75a.75.75 0 01.75-.75h8.5a.75.75 0 010 1.5h-8.5a.75.75 0 01-.75-.75z"/></svg>
